svg/u1fab2.svg

<svg viewBox="0 0 128 128" xmlns="http://www.w3.org/2000/svg">
  <path d="M60.63,29.75l-17.8,12.96l-11.68,9.81c0,0-5.23,3.56-6.61,3.9c-1.35,0.34-4.65-9.95-7.27-10.59 c-6.13-1.5-12.74-3.36-12.59,0.74c0.07,2.05,7.27,2.23,8.62,3.21c1.36,0.98,4.09,11.73,8.27,13.78s16.54-4.99,16.54-4.99l0.38,2.33 c0,0-10.36,5.51-11.14,8.47c-0.77,2.96,0.07,19.06,1.18,20.71c0.77,1.15,0.65,1.66,0.38,2.41c-0.27,0.74-0.03,4.18,0.59,6.9 c0.82,3.62,2.74,6.26,3.93,5.89c3.67-1.15-0.47-9.68,0.94-13.25c0.77-1.95,0.14-6.92-0.14-10.58c-0.28-3.66-0.92-5.1-0.39-6.88 c0.52-1.78,5.25-5.03,8.14-6.16c2.89-1.13,4.17,5.86,4.17,5.86s-3.43-1.49-6.07,2.56c-1.22,1.87,0.05,5.43,3.78,11.45 c3.74,6.03,11.39,14.85,11.73,16.3s-0.6,3.69-0.11,4.99c0.42,1.13,6.76,16.17,10.36,14.79c4.2-1.62-4.71-12.82-4.26-16.62 c0.2-1.73,1.35-3.35,0.68-5.45c-0.98-3.13-13.56-22.25-13.56-22.25l37.9-22.92c0,0,11.84,17.56,14.97,19.21 c3.14,1.65,11.61,6.19,13.55,7.15c1.94,0.96,7.38,3.4,7.99,1.99c0.99-2.29-2.39-5.2-6.14-7.55c-3.75-2.36-9.4-5.71-9.79-7.01 c-0.9-2.97-2.67-9-4.7-12.45S91.5,45.66,91.5,45.66l-6.68-7.31c0,0,5.19,2.67,7.26,2.89s6.68,0.26,8.45,0.34 c1.76,0.08,4.55,1.1,5.43-0.05c1.26-1.66-4.42-4.68-7.36-4.72c-2.94-0.04-6.25-0.57-7.14-0.68c-0.88-0.11-15.61-12.4-19.67-8.54 c-1.43,1.36-0.34,6.76-0.34,6.76l-1.39-2c0,0,0.34-12.04-1.98-15.33s-12.86-3.65-14.24-5.5C52.43,9.66,55,3.62,50.99,4.13 c-2.33,0.3-2.72,10.07-1.2,11.63s9.73,2.29,11.95,5.88C61.9,26.11,60.63,29.75,60.63,29.75z" fill="#728037"/>
  <path d="M36.34,41.48l15.41-16.25c0,0,0.53-2.28-2.79-3.2c-2.04-0.56-4.84,0.06-4.84,0.06s-3.7-1.88-5.91-2.1 c-2.21-0.21-5.04,0.62-5.04,0.62s-3.3-2.96-5.48-2.59s-1.49,2.55-2.34,3.24c-0.86,0.69-2.27,0.23-3,2.16s3.02,6.42,3.02,6.42 s-1.3,6.79,0.92,10.71c2.15,3.81,4.39,6.41,4.39,6.41L36.34,41.48z" fill="#728037"/>
  <ellipse cx="39.07" cy="24.95" fill="#2F2F2F" rx="2.54" ry="2.73" transform="matrix(0.2846 -0.9587 0.9587 0.2846 4.0366 55.3081)"/>
  <ellipse cx="31.69" cy="32.12" fill="#2F2F2F" rx="2.81" ry="2.91" transform="matrix(0.3258 -0.9455 0.9455 0.3258 -8.9972 51.6212)"/>
  <path d="M26.61,7c-1.16,1.44-0.25,2.93,3.31,5.46c3.27,2.33,4.57,2.99,4.57,2.99s0.14,2.29,0.43,3.41 c0.68,2.62,2.37,2.92,4.39,2.85c3.06-0.11,0.51-2.71-0.02-4.58c-0.43-1.53-0.22-3.62-1.15-4.42c-1.74-1.48-2.61-2.38-2.61-2.38 s2.92-5.04,0.32-6.25c-2.11-0.98-4.05,3.63-4.05,3.63S27.79,5.54,26.61,7z" fill="#4E5725"/>
  <path d="M7.53,25.35c-0.43,1.84,3.12,2.8,3.5,3.33c0,0-3.63,2.92-2.45,4.74c1.51,2.33,5.54-1.54,5.8-1.59 c0.27-0.05,1.59,3.33,3.18,3.71c1.59,0.38,5.07-3.2,6.89-2.12c0.99,0.59,0.96,1.14,2.49,0.9s1.17-4.22-1.96-5.54 c-3.02-1.27-6.29,1.4-6.29,1.4s-0.71-2.12-2.93-4.01C13.72,24.44,8.25,22.24,7.53,25.35z" fill="#4E5725"/>
  <path d="M66.87,29.68c0,0-0.42-5.82-5.75-7.09s-11.41-0.9-19.25,5.45c-6.99,5.66-17.2,15.26-12.19,24.25 c1.84,3.3,4.77,3.64,4.77,3.64s-1.71,3.87,1.14,9.65c2.44,4.96,11.34,21.83,31.38,28.35c20.9,6.8,31.94-6.67,33.81-11.53 c0.64-1.65,5.48-12.18-1.28-28.75c-6.74-16.53-19.57-21.62-25.74-23.77C69.33,28.32,66.87,29.68,66.87,29.68z" fill="#02AB47"/>
  <path d="M42.59,31.07c-3.98,3.63-12.36,13.3-7.67,15.55c3.95,1.89,5.37-5.99,12.01-11.7 s12.92-5.16,11.81-8.83C57.63,22.41,49.4,24.84,42.59,31.07z" fill="#79DC8A"/>
  <path d="M43.96,61.69c-3.16,1.82,1.29,6.59,3.9,9.45c3.24,3.54,7.02,7.65,8.84,6.28 c3.05-2.31-2.17-5.89-4.73-8.73C50.06,66.57,46.05,60.49,43.96,61.69z" fill="#79DC8A"/>
  <path d="M52.18,56.61c-2.61,1.9,1.17,5.55,4.87,9.57c4.27,4.63,6.39,7.24,8.44,5.82 c2.77-1.92-3.22-6.56-5.76-9.31C57.19,59.95,54.38,55.01,52.18,56.61z" fill="#79DC8A"/>
  <path d="M60.41,52.23c-2,1.39,1.51,5.24,3.92,7.81c2.92,3.1,5.87,6.28,7.7,4.78 c2.09-1.71-2.47-6.06-4.38-8.05C65.32,54.34,62.88,50.52,60.41,52.23z" fill="#79DC8A"/>
  <path d="M71.59,41.14c2.11-2.37,6.91,2.07,9.11,4.03c2.6,2.31,6.15,5.94,3.93,8.12 c-1.64,1.61-5.11-2.5-7.35-4.55C73.79,45.54,69.69,43.28,71.59,41.14z" fill="#79DC8A"/>
  <path d="M76.03,35.41c-1.24,2.79,4.21,5.02,7.14,7.1c3.61,2.57,6.6,7.09,8.57,5.7 c2.79-1.96-2.62-6.63-6.06-9.16C82.57,36.76,77.01,33.19,76.03,35.41z" fill="#79DC8A"/>
  <path d="M68.35,28.4c-2.31-1.01-2.51,1.63-3.5,3.36c-1.47,2.57-4.89,8.19-8.73,11.58 c-4.55,4.02-11.13,7.37-17.59,9.87c-2.67,1.04-6.36,1.23-5.58,3.81c0.43,1.43,2.22,1.19,7.19-0.54c4.88-1.7,12.25-5.32,14.69-7.05 c3.04-2.16,5.85-4.76,8.24-7.57c2.35-2.77,4.9-7.26,5.8-10.3C69.34,29.86,69.64,28.97,68.35,28.4z" fill="#4E5725"/>
  <path d="M102.51,74.74c0,0-5.65,10.16-6.29,9.57c-0.48-0.45-3.76-8-6.56-12.84 c-3.02-5.21-6.09-10.05-9.14-14.03c-3.17-4.13-10.5-11.43-14.38-13.86c-3.09-1.93-5.05-3.14-5.05-3.14l-2.45,3.39 c0,0,3.89,2.52,5.39,3.77c2.53,2.1,8.82,8.17,11.71,11.49c3.47,3.98,8.72,13.11,9.84,15.39c3.44,6.96,5.88,12.67,5.7,13.99 c-0.17,1.33-4.21,3.67-6.72,4.61c-1.32,0.5-8.17,2.13-8.17,2.13s-1.32,0.64,1.42,0.74c5.95,0.23,11.19,0.47,18.05-4.83 C102.53,86,103.98,72.91,102.51,74.74z" fill="#4E5725"/>
</svg>

<svg viewBox="0 0 128 128" xmlns="http://www.w3.org/2000/svg">
  <defs/>
  <path d="M60.63,29.75 L42.83,42.71 L31.15,52.52 C31.15,52.52 25.92,56.08 24.54,56.42 C23.19,56.76 19.89,46.47 17.27,45.83 C11.14,44.33 4.53,42.47 4.68,46.57 C4.75,48.62 11.95,48.8 13.3,49.78 C14.66,50.76 17.39,61.51 21.57,63.56 C25.75,65.61 38.11,58.57 38.11,58.57 L38.49,60.9 C38.49,60.9 28.13,66.41 27.35,69.37 C26.58,72.33 27.42,88.43 28.53,90.08 C29.3,91.23 29.18,91.74 28.91,92.49 C28.64,93.23 28.88,96.67 29.5,99.39 C30.32,103.01 32.24,105.65 33.43,105.28 C37.1,104.13 32.96,95.6 34.37,92.03 C35.14,90.08 34.51,85.11 34.23,81.45 C33.95,77.79 33.31,76.35 33.84,74.57 C34.36,72.79 39.09,69.54 41.98,68.41 C44.87,67.28 46.15,74.27 46.15,74.27 C46.15,74.27 42.72,72.78 40.08,76.83 C38.86,78.7 40.13,82.26 43.86,88.28 C47.6,94.31 55.25,103.13 55.59,104.58 C55.93,106.03 54.99,108.27 55.48,109.57 C55.9,110.7 62.24,125.74 65.84,124.36 C70.04,122.74 61.13,111.54 61.58,107.74 C61.78,106.01 62.93,104.39 62.26,102.29 C61.28,99.16 48.7,80.04 48.7,80.04 L86.6,57.12 C86.6,57.12 98.44,74.68 101.57,76.33 C104.71,77.98 113.18,82.52 115.12,83.48 C117.06,84.44 122.5,86.88 123.11,85.47 C124.1,83.18 120.72,80.27 116.97,77.92 C113.22,75.56 107.57,72.21 107.18,70.91 C106.28,67.94 104.51,61.91 102.48,58.46 C100.45,55.01 91.5,45.66 91.5,45.66 L84.82,38.35 C84.82,38.35 90.01,41.02 92.08,41.24 C94.15,41.46 98.76,41.5 100.53,41.58 C102.29,41.66 105.08,42.68 105.96,41.53 C107.22,39.87 101.54,36.85 98.6,36.81 C95.66,36.77 92.35,36.24 91.46,36.13 C90.58,36.02 75.85,23.73 71.79,27.59 C70.36,28.95 71.45,34.35 71.45,34.35 L70.06,32.35 C70.06,32.35 70.4,20.31 68.08,17.02 C65.76,13.73 55.22,13.37 53.84,11.52 C52.43,9.66 55,3.62 50.99,4.13 C48.66,4.43 48.27,14.2 49.79,15.76 C51.31,17.32 59.52,18.05 61.74,21.64 C61.9,26.11 60.63,29.75 60.63,29.75 Z" fill="#728037"/>
  <path d="M36.34,41.48 L51.75,25.23 C51.75,25.23 52.28,22.95 48.96,22.03 C46.92,21.47 44.12,22.09 44.12,22.09 C44.12,22.09 40.42,20.21 38.21,19.99 C36,19.78 33.17,20.61 33.17,20.61 C33.17,20.61 29.87,17.65 27.69,18.02 C25.51,18.39 26.2,20.57 25.35,21.26 C24.49,21.95 23.08,21.49 22.35,23.42 C21.62,25.35 25.37,29.84 25.37,29.84 C25.37,29.84 24.07,36.63 26.29,40.55 C28.44,44.36 30.68,46.96 30.68,46.96 L36.34,41.48 Z" fill="#728037"/>
  <path d="M39.798,22.517 C41.244,22.946 42.092,24.385 41.693,25.729 C41.294,27.074 39.798,27.817 38.353,27.388 C36.907,26.958 36.059,25.52 36.458,24.176 C36.857,22.831 38.353,22.088 39.798,22.517 Z" fill="#2F2F2F"/>
  <path d="M32.612,29.466 C34.132,29.99 34.954,31.604 34.448,33.071 C33.943,34.538 32.301,35.303 30.781,34.78 C29.262,34.256 28.44,32.642 28.945,31.175 C29.451,29.708 31.093,28.943 32.612,29.466 Z" fill="#2F2F2F"/>
  <path d="M26.61,7 C25.45,8.44 26.36,9.93 29.92,12.46 C33.19,14.79 34.49,15.45 34.49,15.45 C34.49,15.45 34.63,17.74 34.92,18.86 C35.6,21.48 37.29,21.78 39.31,21.71 C42.37,21.6 39.82,19 39.29,17.13 C38.86,15.6 39.07,13.51 38.14,12.71 C36.4,11.23 35.53,10.33 35.53,10.33 C35.53,10.33 38.45,5.29 35.85,4.08 C33.74,3.1 31.8,7.71 31.8,7.71 C31.8,7.71 27.79,5.54 26.61,7 Z" fill="#4E5725"/>
  <path d="M7.53,25.35 C7.1,27.19 10.65,28.15 11.03,28.68 C11.03,28.68 7.4,31.6 8.58,33.42 C10.09,35.75 14.12,31.88 14.38,31.83 C14.65,31.78 15.97,35.16 17.56,35.54 C19.15,35.92 22.63,32.34 24.45,33.42 C25.44,34.01 25.41,34.56 26.94,34.32 C28.47,34.08 28.11,30.1 24.98,28.78 C21.96,27.51 18.69,30.18 18.69,30.18 C18.69,30.18 17.98,28.06 15.76,26.17 C13.72,24.44 8.25,22.24 7.53,25.35 Z" fill="#4E5725"/>
  <path d="M66.87,29.68 C66.87,29.68 66.45,23.86 61.12,22.59 C55.79,21.32 49.71,21.69 41.87,28.04 C34.88,33.7 24.67,43.3 29.68,52.29 C31.52,55.59 34.45,55.93 34.45,55.93 C34.45,55.93 32.74,59.8 35.59,65.58 C38.03,70.54 46.93,87.41 66.97,93.93 C87.87,100.73 98.91,87.26 100.78,82.4 C101.42,80.75 106.26,70.22 99.5,53.65 C92.76,37.12 79.93,32.03 73.76,29.88 C69.33,28.32 66.87,29.68 66.87,29.68 Z" fill="#02AB47"/>
  <path d="M42.59,31.07 C38.61,34.7 30.23,44.37 34.92,46.62 C38.87,48.51 40.29,40.63 46.93,34.92 C53.57,29.21 59.85,29.76 58.74,26.09 C57.63,22.41 49.4,24.84 42.59,31.07 Z" fill="#79DC8A"/>
  <path d="M43.96,61.69 C40.8,63.51 45.25,68.28 47.86,71.14 C51.1,74.68 54.88,78.79 56.7,77.42 C59.75,75.11 54.53,71.53 51.97,68.69 C50.06,66.57 46.05,60.49 43.96,61.69 Z" fill="#79DC8A"/>
  <path d="M52.18,56.61 C49.57,58.51 53.35,62.16 57.05,66.18 C61.32,70.81 63.44,73.42 65.49,72 C68.26,70.08 62.27,65.44 59.73,62.69 C57.19,59.95 54.38,55.01 52.18,56.61 Z" fill="#79DC8A"/>
  <path d="M60.41,52.23 C58.41,53.62 61.92,57.47 64.33,60.04 C67.25,63.14 70.2,66.32 72.03,64.82 C74.12,63.11 69.56,58.76 67.65,56.77 C65.32,54.34 62.88,50.52 60.41,52.23 Z" fill="#79DC8A"/>
  <path d="M71.59,41.14 C73.7,38.77 78.5,43.21 80.7,45.17 C83.3,47.48 86.85,51.11 84.63,53.29 C82.99,54.9 79.52,50.79 77.28,48.74 C73.79,45.54 69.69,43.28 71.59,41.14 Z" fill="#79DC8A"/>
  <path d="M76.03,35.41 C74.79,38.2 80.24,40.43 83.17,42.51 C86.78,45.08 89.77,49.6 91.74,48.21 C94.53,46.25 89.12,41.58 85.68,39.05 C82.57,36.76 77.01,33.19 76.03,35.41 Z" fill="#79DC8A"/>
  <path d="M68.35,28.4 C66.04,27.39 65.84,30.03 64.85,31.76 C63.38,34.33 59.96,39.95 56.12,43.34 C51.57,47.36 44.99,50.71 38.53,53.21 C35.86,54.25 32.17,54.44 32.95,57.02 C33.38,58.45 35.17,58.21 40.14,56.48 C45.02,54.78 52.39,51.16 54.83,49.43 C57.87,47.27 60.68,44.67 63.07,41.86 C65.42,39.09 67.97,34.6 68.87,31.56 C69.34,29.86 69.64,28.97 68.35,28.4 Z" fill="#4E5725"/>
  <path d="M102.51,74.74 C102.51,74.74 96.86,84.9 96.22,84.31 C95.74,83.86 92.46,76.31 89.66,71.47 C86.64,66.26 83.57,61.42 80.52,57.44 C77.35,53.31 70.02,46.01 66.14,43.58 C63.05,41.65 61.09,40.44 61.09,40.44 L58.64,43.83 C58.64,43.83 62.53,46.35 64.03,47.6 C66.56,49.7 72.85,55.77 75.74,59.09 C79.21,63.07 84.46,72.2 85.58,74.48 C89.02,81.44 91.46,87.15 91.28,88.47 C91.11,89.8 87.07,92.14 84.56,93.08 C83.24,93.58 76.39,95.21 76.39,95.21 C76.39,95.21 75.07,95.85 77.81,95.95 C83.76,96.18 89,96.42 95.86,91.12 C102.53,86 103.98,72.91 102.51,74.74 Z" fill="#4E5725"/>
</svg>
